X:1
T:Johnny's Wedding
R:reel
M:4/4
L:1/8
K:Ddor
DE|:FDAG FDDF|ECGF EDCE|FDAG FDDF|EDCE ~D2DE|
|FDAG FDDF|ECGF EDCE|DFEG FAGc|1 Adce ~d2DE:|2 Adce ~d2de|]
|:~f2ed cAAB|cAGF EDCz|~f2ed cAAG|Adce ~d2de|
|~f2ed cAAB|cAGF EDCE|DFEG FAGc|1 Adce ~d2de:|2 Adce ~d2DE|]